X: 6
T: Contentment Is Wealth
R: jig
M: 6/8
L: 1/8
K: Edor
E/F/|GFG Eed|BAB EFG|F3 D2A|AFD Def|
gfe edB|BAB e2d|B/c/dB DFA|GEE E2:||
|e3 Beg|bge gfe|d3 Adf|afd g/f/ed|
e3 Beg|bge gfe|B/c/dB DFA|GEE E2:|


Tune 1662	Setting 20809

